X:1
T:Trowbridge, LMD
T:Joseph Beers Trowbridge, 1900
T:Trowbridge, LMD
T:Public Domain
C:Joseph Beers Trowbridge, 1900
Z:Public Domain
%%score ( 1 2 ) ( 3 4 )
L:1/8
M:4/4
K:Eb
V:1 treble 
V:2 treble 
V:3 bass 
V:4 bass 
V:1
 [B,E]2 | [EG]2 [EG]2 [EG][EF][B,E][EG] | [EB]6 [EG]2 | [DF]2 [DF]2 [DG][DF][CE][DF] | %4
 [EG]6 [B,E]2 | [EG]2 [EG]2 [EG][EF][B,E][EG] | [EB]6 [EB]2 | [Ge][Ac][GB][EG] E2 [B,F]2 | [B,E]6 | %9
 [B,E]2 | [EG]2 [EG]2 [EG][EG][DF]E | [EG]6 [EG]2 | [GB]2 [GB]2 [GB][GB][FA][EG] | [GB]6 [GB]2 | %14
 [Ge]2 [Be]2 [Ae][Ae][Bd][Ac] | [GB]6 [B,E]2 | [EG][GB][GB][GB] (FD) [B,D]2 | [B,E]6 |] %18
V:2
 x2 | x8 | x8 | x8 | x8 | x8 | x8 | x4 E2 x2 | x6 | x2 | x7 E | x8 | x8 | x8 | x8 | x8 | x4 B2 x2 | %17
 x6 |] %18
V:3
 [E,G,]2 | [E,B,]2 [E,B,]2 [E,B,][E,A,][E,G,][E,B,] | [E,G,]6 [E,B,]2 | %3
 [B,,B,]2 [B,,B,]2 [B,,B,][B,,A,][C,G,][B,,B,] | [E,B,]6 [E,G,]2 | %5
 [E,B,]2 [E,B,]2 [E,B,][E,A,][E,G,][E,B,] | [E,G,]6 [E,G,]2 | %7
 [E,B,][E,E][E,E][E,B,] [B,,G,]2 [B,,A,]2 | [E,G,]6 | [E,G,]2 | [E,B,]2 [E,B,]2 [E,B,]2 (A,G,) | %11
 [E,B,]2 [E,B,]2 [E,B,]2 [E,B,]2 | [E,E]2 [E,E]2 [E,B,]2 [B,,B,]2 | [E,B,]2 [E,E]2 [E,E]2 [E,E]2 | %14
 [E,B,]2 [G,B,]2 [A,C]2 [A,E]2 | [E,E]2 [B,,E]2 [E,B,]2 [E,G,]2 | [E,B,]3 [E,E] (DB,) [B,,A,]2 | %17
 [E,G,]6 |] %18
V:4
 x2 | x8 | x8 | x8 | x8 | x8 | x8 | x8 | x6 | x2 | x6 B,,2 | x8 | x8 | x8 | x8 | x8 | x4 B,,2 x2 | %17
 x6 |] %18

